SVG_Azure_All/Network Security Group Outbound Rule.svg

<?xml version="1.0" encoding="UTF-8" standalone="no"?>
<!-- Generated by Microsoft Visio, SVG Export Network Security Group Outbound Rule.svg Page-1 -->

<svg
   xmlns:dc="http://purl.org/dc/elements/1.1/"
   xmlns:cc="http://creativecommons.org/ns#"
   xmlns:rdf="http://www.w3.org/1999/02/22-rdf-syntax-ns#"
   xmlns:svg="http://www.w3.org/2000/svg"
   xmlns="http://www.w3.org/2000/svg"
   xmlns:sodipodi="http://sodipodi.sourceforge.net/DTD/sodipodi-0.dtd"
   xmlns:inkscape="http://www.inkscape.org/namespaces/inkscape"
   width="0.78746265in"
   height="0.78744179in"
   viewBox="0 0 56.697379 56.696097"
   xml:space="preserve"
   class="st4"
   version="1.1"
   id="svg29"
   sodipodi:docname="Network Security Group Outbound Rule.svg"
   style="font-size:12px;overflow:visible;color-interpolation-filters:sRGB;fill:none;fill-rule:evenodd;stroke-linecap:square;stroke-miterlimit:3"
   inkscape:version="0.92.5 (2060ec1f9f, 2020-04-08)"><metadata
   id="metadata35"><rdf:RDF><cc:Work
       rdf:about=""><dc:format>image/svg+xml</dc:format><dc:type
         rdf:resource="http://purl.org/dc/dcmitype/StillImage" /></cc:Work></rdf:RDF></metadata><defs
   id="defs33" /><sodipodi:namedview
   pagecolor="#ffffff"
   bordercolor="#666666"
   borderopacity="1"
   objecttolerance="10"
   gridtolerance="10"
   guidetolerance="10"
   inkscape:pageopacity="0"
   inkscape:pageshadow="2"
   inkscape:window-width="640"
   inkscape:window-height="480"
   id="namedview31"
   showgrid="false"
   inkscape:zoom="1.7193066"
   inkscape:cx="37.795072"
   inkscape:cy="23.279613"
   inkscape:window-x="0"
   inkscape:window-y="0"
   inkscape:window-maximized="0"
   inkscape:current-layer="svg29" />
	<style
   type="text/css"
   id="style2">
	<![CDATA[
		.st1 {fill:#a0a1a2;stroke:none;stroke-linecap:butt;stroke-width:12.24}
		.st2 {fill:#b8d432;stroke:none;stroke-linecap:butt;stroke-width:12.24}
		.st3 {fill:#0072c6;stroke:none;stroke-linecap:butt;stroke-width:12.24}
		.st4 {fill:none;fill-rule:evenodd;font-size:12px;overflow:visible;stroke-linecap:square;stroke-miterlimit:3}
	]]>
	</style>

	<g
   id="g27"
   transform="translate(-12.24016,-12.2382)">
		<title
   id="title4">Page-1</title>
		<g
   id="group2834-1"
   transform="translate(12.24,-34.0157)">
			<title
   id="title6">Network Security Group Outbound Rule</title>
			<g
   id="group2835-2">
				<title
   id="title8">Sheet.2835</title>
				<g
   id="shape2836-3"
   transform="translate(16.3276,-2.94803)">
					<title
   id="title10">Sheet.2836</title>
					<path
   d="M 37.64,85.26 H 2.72 C 1.25,85.26 0,84.01 0,82.88 0,81.75 1.25,80.73 2.72,80.73 h 34.92 c 1.59,0 2.73,0.9 2.73,2.15 0,1.13 -1.25,2.38 -2.73,2.38 z m 0,17.69 H 2.72 C 1.25,102.95 0,101.7 0,100.57 0,99.43 1.25,98.41 2.72,98.41 h 34.92 c 1.48,0 2.73,0.91 2.73,2.16 0,1.13 -1.25,2.38 -2.73,2.38 z"
   class="st1"
   id="path12"
   inkscape:connector-curvature="0"
   style="fill:#a0a1a2;stroke:none;stroke-width:12.23999977;stroke-linecap:butt" />
				</g>
				<g
   id="shape2837-5">
					<title
   id="title15">Sheet.2837</title>
					<path
   d="m 0,79.36 1.93,-2.04 3.97,3.97 8.05,-7.94 1.92,2.05 -9.97,9.86 z m 0,17.58 1.93,-1.93 3.97,3.97 8.05,-7.94 1.92,1.93 -9.97,9.98 z"
   class="st2"
   id="path17"
   inkscape:connector-curvature="0"
   style="fill:#b8d432;stroke:none;stroke-width:12.23999977;stroke-linecap:butt" />
				</g>
				<g
   id="shape2838-7"
   transform="translate(18.2551,-34.6961)">
					<title
   id="title20">Sheet.2838</title>
					<path
   d="M 7.82,87.53 0,95.01 v -4.08 l 9.41,-9.98 9.41,9.98 v 3.97 l -7.71,-7.37 v 15.42 H 7.82 Z"
   class="st3"
   id="path22"
   inkscape:connector-curvature="0"
   style="fill:#0072c6;stroke:none;stroke-width:12.23999977;stroke-linecap:butt" />
				</g>
			</g>
		</g>
	</g>
</svg>

<?xml version="1.0" encoding="UTF-8" standalone="no"?>
<!DOCTYPE svg PUBLIC "-//W3C//DTD SVG 1.1//EN" "http://www.w3.org/Graphics/SVG/1.1/DTD/svg11.dtd">
<!-- Generated by Microsoft Visio, SVG Export Network Security Group Outbound Rule.svg Page-1 -->
<svg xmlns="http://www.w3.org/2000/svg" xmlns:xlink="http://www.w3.org/1999/xlink" xmlns:ev="http://www.w3.org/2001/xml-events"
		width="1.1274in" height="1.42984in" viewBox="0 0 81.1729 102.949" xml:space="preserve" color-interpolation-filters="sRGB"
		class="st4">
	<style type="text/css">
	<![CDATA[
		.st1 {fill:#a0a1a2;stroke:none;stroke-linecap:butt;stroke-width:12.24}
		.st2 {fill:#b8d432;stroke:none;stroke-linecap:butt;stroke-width:12.24}
		.st3 {fill:#0072c6;stroke:none;stroke-linecap:butt;stroke-width:12.24}
		.st4 {fill:none;fill-rule:evenodd;font-size:12px;overflow:visible;stroke-linecap:square;stroke-miterlimit:3}
	]]>
	</style>

	<g>
		<title>Page-1</title>
		<g id="group2808-1" transform="translate(12.24,-34.0157)">
			<title>Network Security Group Outbound Rule</title>
			<g id="group2809-2">
				<title>Sheet.2809</title>
				<g id="shape2810-3" transform="translate(16.3276,-2.94803)">
					<title>Sheet.2810</title>
					<path d="M37.64 85.26 L2.72 85.26 C1.25 85.26 0 84.01 0 82.88 C0 81.75 1.25 80.73 2.72 80.73 L37.64 80.73 C39.23
								 80.73 40.37 81.63 40.37 82.88 C40.37 84.01 39.12 85.26 37.64 85.26 ZM37.64 102.95 L2.72 102.95 C1.25
								 102.95 0 101.7 0 100.57 C0 99.43 1.25 98.41 2.72 98.41 L37.64 98.41 C39.12 98.41 40.37 99.32 40.37
								 100.57 C40.37 101.7 39.12 102.95 37.64 102.95 Z" class="st1"/>
				</g>
				<g id="shape2811-5">
					<title>Sheet.2811</title>
					<path d="M0 79.36 L1.93 77.32 L5.9 81.29 L13.95 73.35 L15.87 75.4 L5.9 85.26 L0 79.36 ZM0 96.94 L1.93 95.01 L5.9
								 98.98 L13.95 91.04 L15.87 92.97 L5.9 102.95 L0 96.94 Z" class="st2"/>
				</g>
				<g id="shape2812-7" transform="translate(18.2551,-34.6961)">
					<title>Sheet.2812</title>
					<path d="M7.82 87.53 L0 95.01 L0 90.93 L9.41 80.95 L18.82 90.93 L18.82 94.9 L11.11 87.53 L11.11 102.95 L7.82
								 102.95 L7.82 87.53 Z" class="st3"/>
				</g>
			</g>
		</g>
	</g>
</svg>
